X: 04083
T: SARAH DELL
C: Bob McQuillen 15 July 79
B: Bob's Note Book 04 #83
%R: reel
Z: 2020 John Chambers <jc:trillian.mit.edu>
M: C
L: 1/8
K: G
BA \
| G2D2 BAGB | d2g2 g2gf | e2ge d2B2 | dedB A2BA \
| G2D2 BAGB | d2g2 g2ge | d2ge dBGA | B2G2 G2 :|
|: Bc \
| d2d2 e2dc | Bcde d2ef | gfga baga | b2a2 a2gf \
| e2g2 d2g2 | dgdB A2D2 | d2Bd cAFG | A2G2 G2 :|
%%begintext align
%% One of my school girls likes
%% the music pretty well, so
%% here's a tune of your own,
%% Sarah, with love from Mr. Mac.
%%endtext

%%sep 1 1 500

%%sep 1 1 500

